logos/pm2.svg

<?xml version="1.0" encoding="UTF-8"?>
<svg width="512px" height="125px" viewBox="0 0 512 125" version="1.1" xmlns="http://www.w3.org/2000/svg" preserveAspectRatio="xMidYMid">
    <title>PM2</title>
    <defs>
        <linearGradient x1="67.1299837%" y1="64.6873025%" x2="46.1614684%" y2="45.7804854%" id="pm2LinearGradient-1">
            <stop stop-color="#520BF5" offset="0%"></stop>
            <stop stop-color="#9D1FE0" offset="100%"></stop>
            <stop stop-color="#9D1FE0" offset="100%"></stop>
        </linearGradient>
        <linearGradient x1="67.4626279%" y1="34.9939767%" x2="42.4094293%" y2="56.9018791%" id="pm2LinearGradient-2">
            <stop stop-color="#9E1FA7" offset="0%"></stop>
            <stop stop-color="#E540AE" offset="100%"></stop>
        </linearGradient>
        <linearGradient x1="100%" y1="50%" x2="29.9733771%" y2="50%" id="pm2LinearGradient-3">
            <stop stop-color="#4B6AF2" offset="0%"></stop>
            <stop stop-color="#4CA7EB" offset="100%"></stop>
        </linearGradient>
    </defs>
    <g>
        <g>
            <path d="M104.068543,0 L98.5141962,9.52234667 C97.8801695,10.6094933 96.7375562,11.21536 95.5625162,11.21536 C94.9788362,11.21536 94.3866229,11.0660267 93.8456095,10.7502933 C92.2174495,9.80053333 91.6679029,7.70986667 92.6176629,6.08170667 L96.1649695,0 L86.1912095,0 C86.1920629,0.581973333 86.0589429,1.17077333 85.7466229,1.71008 L70.4019829,28.2129067 C66.6390121,34.7388688 58.5646261,38.5220267 52.2866162,38.5220267 C52.2866162,38.5220267 50.649054,38.5220267 47.3739295,38.5220267 C45.4889162,38.5220267 43.9605962,36.9937067 43.9605962,35.1086933 C43.9605962,33.22368 45.4889162,31.69536 47.3739295,31.69536 L52.2866162,31.69536 C56.7364079,31.69536 61.8354704,28.53286 64.3680629,25.01888 C66.0564578,22.6762267 70.8829112,14.3366 78.8474229,0 L69.7816095,0 C55.4592629,30.8420267 46.9259295,24.8686933 21.3259295,24.8686933 C19.6312095,27.43552 17.9271029,30.0117333 16.2605429,32.5486933 L34.1259295,32.5486933 C36.0109429,32.5486933 37.5392629,34.0770133 37.5392629,35.9620267 C37.5392629,37.84704 36.0109429,39.37536 34.1259295,39.37536 L11.8104095,39.37536 C10.2872095,41.7390933 8.83910286,44.0200533 7.51216953,46.1687467 L63.5923829,45.7745067 L61.0827295,45.7762133 C64.4789962,45.8453333 69.9727562,43.8570667 72.6325962,39.6757333 L85.8549962,18.7767467 C86.8627829,17.1835733 88.9705162,16.70912 90.5645429,17.71776 C92.1568629,18.7255467 92.6313162,20.83328 91.6235295,22.4273067 L78.3968629,43.3339733 C74.4092362,49.5991467 66.8615029,52.7018667 60.9828895,52.6020267 L3.45883619,53.0235733 C0.792169528,57.82016 5.42760281e-14,60.9537515 0.0335561943,62.41536 L76.2865695,62.41536 L115.192596,2.68202667 C112.73672,1.26645985 109.219263,0.122026667 104.71793,0 L104.068543,0 Z" fill="url(#pm2LinearGradient-1)"></path>
            <path d="M76.2869109,62.4152747 L0.0330441943,62.4152747 C-0.211862472,66.0317013 0.915938718,69.7880747 3.03817872,73.088768 C3.90423126,73.088768 4.53693753,73.088768 4.93629753,73.088768 L4.96445753,73.088768 L54.0912343,73.088768 C62.0349476,72.216257 69.0830263,75.5198085 75.2354704,82.9994225 L88.0381642,103.696981 C89.0433909,105.291861 88.5638175,107.399595 86.9689375,108.403968 C86.4040309,108.759808 85.7751242,108.929621 85.1538975,108.929621 C84.0189642,108.929621 82.9104842,108.364715 82.2619509,107.333888 C74.3682613,94.5388185 69.5615409,87.3013193 67.8417898,85.6213904 C65.2621632,83.1014971 61.9581787,79.9350613 54.0912343,79.9350613 L7.32563086,79.9350613 L11.8807242,87.168768 L30.1104842,87.168768 C31.9954975,87.168768 33.5238175,88.697088 33.5238175,90.5821013 C33.5238175,92.4671147 31.9954975,93.9954347 30.1104842,93.9954347 L16.1789642,93.9954347 L20.4729375,100.815275 C51.1929375,100.815275 55.4596042,104.228608 66.0068042,124.586746 L74.9557109,124.586746 C67.3133634,110.939219 62.4842555,102.888723 60.4683871,100.435256 C57.4445844,96.7550555 53.3696424,93.9954347 48.0940121,93.9954347 L43.3584842,93.9954347 C41.4734709,93.9954347 39.9451509,92.4671147 39.9451509,90.5821013 C39.9451509,88.697088 41.4734709,87.168768 43.3584842,87.168768 L48.0940121,87.168768 C55.3319287,87.168768 63.4536309,91.8185813 66.3856842,97.477888 L82.5836575,123.980715 C82.6971509,124.176981 82.7867509,124.380075 82.8575775,124.586746 L95.0610975,124.586746 L91.1622175,117.902421 C90.2116042,116.274261 90.7620042,114.184448 92.3901642,113.233835 C92.9311775,112.918955 93.5233909,112.768768 94.1070709,112.768768 C95.2812575,112.768768 96.4247242,113.374635 97.0587509,114.462635 L102.964671,124.586746 L105.967137,124.586746 C108.345377,124.594261 110.087814,124.34119 113.486275,122.148608 L76.2869109,62.4152747 Z" fill="url(#pm2LinearGradient-2)"></path>
            <path d="M115.192852,2.68202667 L110.451732,9.89696 L116.326079,18.70848 C117.371412,20.2769067 116.948159,22.3965867 115.378879,23.44192 C114.797759,23.8301867 114.139839,24.01536 113.489599,24.01536 C112.386239,24.01536 111.303359,23.4820267 110.646292,22.4955733 L106.378772,16.09472 L101.666666,23.2644267 L118.500372,50.816 C122.435946,57.2552533 122.417172,65.24416 118.452586,71.6663467 C118.401386,71.7474133 118.347626,71.8276267 118.290452,71.90528 L116.228799,74.688 C115.558932,75.5908267 114.527252,76.0686933 113.483626,76.0686933 C112.777066,76.0686933 112.064532,75.85024 111.453546,75.3979733 C109.938879,74.2749867 109.621439,72.1373867 110.743572,70.62272 L112.714772,67.9637333 C115.250026,63.7627733 115.238079,58.5693867 112.675519,54.3752533 L97.5211722,29.57312 L75.9395189,62.41536 L92.9114655,36.8315733 L101.292906,49.7800533 C105.593706,56.42496 105.576639,64.98048 101.249386,71.6091733 L91.2995189,86.8514133 L75.9395189,62.41536 L95.6847989,93.82912 L104.782186,81.69984 C105.913706,80.1928533 108.052159,79.88736 109.560852,81.0180267 C111.068692,82.1486933 111.374186,84.2888533 110.243519,85.7966933 L99.5759989,100.020053 L104.764266,108.273493 L129.912852,68.5661867 C132.780906,64.0384 132.814186,58.16576 129.997332,53.6064 L117.834772,33.9157333 C116.844906,32.31232 117.341546,30.2088533 118.945812,29.2181333 C120.550932,28.2274133 122.652692,28.7249067 123.643412,30.32832 L135.805119,50.0189867 C139.984746,56.78592 139.935252,65.4993067 135.680532,72.2193067 L109.116266,114.161493 C109.009599,114.330453 108.886719,114.481493 108.757012,114.624853 L113.483626,122.148608 C115.543118,120.521678 117.009296,119.155426 117.882162,118.049852 C127.898691,105.362891 138.323712,90.1201761 149.157226,72.3217067 C152.866885,66.2270758 152.963946,58.6752 149.293759,52.5986133 C135.331519,29.48352 119.819741,4.97500151 115.192852,2.68202667 Z" fill="url(#pm2LinearGradient-3)"></path>
        </g>
        <path d="M482.986667,28.5873314 C504.951467,28.5873314 511.861931,37.7872034 511.997943,45.2649514 L512,51.6273314 C511.970509,52.0993272 511.908697,52.5901973 511.807807,53.0943681 L511.724706,53.474903 C510.365116,59.2177229 503.845717,66.4675661 482.542933,67.2885581 L482.4144,67.2911181 L445.2992,66.9898914 L444.933795,66.9909005 L444.223954,66.9994227 L443.541626,67.0165483 L442.886276,67.042195 L442.257369,67.0762809 C442.154725,67.0826605 442.05316,67.0893884 441.952664,67.0964628 L441.362418,67.1430531 L440.797278,67.197877 L440.256707,67.2608524 L439.740172,67.331897 L439.247137,67.4109288 C435.315185,68.0887447 433.6807,69.5573808 433.032272,71.615422 L432.957711,71.8703592 L432.892472,72.1311057 L432.83602,72.3975796 C432.818607,72.4873496 432.80257,72.5780604 432.787818,72.6696985 L432.747333,72.9473802 C432.741199,72.9941196 432.735364,73.0410872 432.729817,73.0882815 L432.699903,73.3741536 L432.676368,73.6653831 L432.658677,73.9618879 L432.641926,74.4163564 L432.63505,75.040011 L432.639147,75.5206648 L432.64,84.9073314 L506.88,84.9073314 C510.728366,84.9073314 511.799872,86.5803897 511.972982,89.1563359 L511.990621,89.4973859 L511.998996,89.8482968 L512,90.0273314 C512,90.1429339 511.998785,90.2571026 511.996217,90.3697627 L511.984318,90.7031429 C511.981612,90.7579271 511.978534,90.8123155 511.975067,90.8662989 L511.949446,91.1852625 C511.923968,91.44689 511.887886,91.6979227 511.839051,91.9371944 L511.77419,92.2186005 C511.311015,94.0100747 510.019623,95.0576187 506.88,94.8077048 L425.813333,94.8077048 L425.388227,94.8380109 L424.980571,94.8593736 L424.590166,94.8710747 C421.217198,94.9296468 419.84,93.7733201 419.84,89.1739981 L419.84,74.6673314 C419.84,63.8043981 428.267349,59.4535074 435.625958,57.764893 L436.281828,57.6206882 L436.930469,57.4901026 C437.145309,57.4487757 437.358692,57.4096162 437.570365,57.3725218 L438.2,57.2673314 L438.817859,57.173917 L439.422427,57.0916642 L440.012188,57.0199586 C440.109164,57.0088525 440.205459,56.9981602 440.301042,56.987869 L440.865751,56.9308322 L441.411864,56.8828066 L441.937865,56.8431778 L442.685844,56.7981346 L443.380047,56.7685282 L444.015359,56.752285 L444.403658,56.7478562 L483.84,56.7473314 C492.919467,56.7473314 496.646827,54.0712781 498.169119,51.7163512 L498.323927,51.4654029 L498.46272,51.2177314 C498.484565,51.1767714 498.505779,51.1359821 498.52638,51.0953805 L498.642762,50.8541602 L498.74528,50.6182648 C498.761259,50.5794381 498.776695,50.5408674 498.791608,50.5025698 L498.874941,50.2761976 C498.88783,50.2390605 498.900231,50.2022306 498.912161,50.165725 L498.978245,49.9507192 L499.033905,49.7443149 L499.08,49.5473314 L499.133092,49.2713122 L499.15904,49.1014648 L499.185943,48.8699896 L499.203894,48.6091426 L499.206397,48.3335842 L499.201878,48.2028808 L499.225952,47.9992737 L499.239754,47.7783923 L499.243869,47.5682326 L499.238805,47.3232326 L499.228627,47.1420111 L499.211815,46.9475061 L499.187347,46.7405981 L499.154201,46.5221675 L499.111355,46.2930949 C499.095343,46.2150615 499.077544,46.1354011 499.057787,46.0542605 L498.992476,45.8065449 C498.980555,45.7645678 498.968103,45.7222573 498.955097,45.6796318 L498.870254,45.4202451 C497.890824,42.6162611 494.471134,38.6721954 483.030187,38.3963981 C482.957653,38.3946914 482.884267,38.4006648 482.811733,38.4006648 L448,38.4006648 C444.936533,38.4006648 442.453333,35.9174648 442.453333,32.8539981 C442.453333,29.7905314 444.936533,28.5873314 448,28.5873314 L482.986667,28.5873314 Z M390.08563,48.6669709 L351.314695,91.9716722 C346.136804,97.0151521 340.166153,97.0151521 335.042611,91.9716722 L294.89499,47.9491014 L294.89499,89.8981148 C294.83611,93.6681414 291.713763,96.7008881 287.963363,96.6189681 C284.193337,96.5609414 281.184483,93.4582214 281.241685,89.6881948 L282.093283,34.4305948 C282.127417,32.1854748 283.15483,30.0171548 284.998883,28.7371548 C287.850723,26.7582748 291.581497,27.2250481 293.86075,29.6135281 L342.17051,80.7188081 C342.44443,81.0089414 342.909497,80.9995548 343.172323,80.6991814 L389.615843,30.9131548 C391.49403,28.7960348 396.203577,27.7925148 398.85147,28.7926214 C401.49851,29.7910214 403.521677,32.3542767 403.534477,35.1847834 C403.534477,68.0961304 403.534477,86.2639342 403.534477,89.6881948 C403.534477,94.8245856 400.328091,94.9131548 396.441657,94.9131548 C392.672178,94.9131548 389.882083,94.8509228 389.882083,89.8247281 C389.882083,86.4739316 389.949932,72.7546792 390.08563,48.6669709 Z M238.506667,28.1606648 C251.430191,28.1645172 266.662077,33.446221 266.662077,46.0542605 L266.662077,53.474903 C266.662077,65.356778 252.429447,71.6476645 240.650566,71.2677388 L190.49984,71.2539981 L190.49984,90.6835448 C190.49984,92.851367 188.791494,94.6199299 186.64831,94.7165107 L186.463573,94.7206648 L180.67712,94.7206648 C178.509298,94.7206648 176.740735,93.0123191 176.644154,90.8683506 L176.64,90.6835448 L176.64,32.5510648 C176.64,30.1889068 178.506548,28.2617906 180.844843,28.1645172 L181.0304,28.1606648 L238.506667,28.1606648 Z M240.2944,38.4006648 C240.2944,38.4006648 223.485156,38.4006648 189.866667,38.4006648 L189.866667,60.7793314 L240.213333,60.5873314 C247.780392,60.5873314 253.644775,60.5873314 253.862805,53.474903 L253.862805,46.0542605 C253.862805,38.4006648 245.346025,38.3963981 240.2944,38.4006648 Z" fill="#000000"></path>
    </g>
</svg>

<svg preserveAspectRatio="xMidYMid" viewBox="0 0 512 125" xmlns="http://www.w3.org/2000/svg">
  <defs>
    <linearGradient id="pm2_svg__a" x1="67.13%" x2="46.161%" y1="64.687%" y2="45.78%">
      <stop offset="0%" stop-color="#520BF5"/>
      <stop offset="100%" stop-color="#9D1FE0"/>
      <stop offset="100%" stop-color="#9D1FE0"/>
    </linearGradient>
    <linearGradient id="pm2_svg__b" x1="67.463%" x2="42.409%" y1="34.994%" y2="56.902%">
      <stop offset="0%" stop-color="#9E1FA7"/>
      <stop offset="100%" stop-color="#E540AE"/>
    </linearGradient>
    <linearGradient id="pm2_svg__c" x1="100%" x2="29.973%" y1="50%" y2="50%">
      <stop offset="0%" stop-color="#4B6AF2"/>
      <stop offset="100%" stop-color="#4CA7EB"/>
    </linearGradient>
  </defs>
  <path fill="url(#pm2_svg__a)" d="m104.069 0-5.555 9.522a3.41 3.41 0 0 1-4.668 1.228 3.414 3.414 0 0 1-1.228-4.668L96.165 0h-9.974a3.377 3.377 0 0 1-.444 1.71L70.402 28.213c-3.763 6.526-11.837 10.309-18.115 10.309h-4.913a3.413 3.413 0 0 1 0-6.827h4.913c4.45 0 9.548-3.162 12.081-6.676C66.056 22.676 70.883 14.337 78.848 0h-9.066C55.459 30.842 46.926 24.869 21.326 24.869c-1.695 2.567-3.399 5.143-5.065 7.68h17.865a3.413 3.413 0 0 1 0 6.826H11.81a423.089 423.089 0 0 0-4.298 6.794l56.08-.394-2.51.001c3.397.07 8.89-1.919 11.55-6.1l13.223-20.9a3.412 3.412 0 1 1 5.769 3.651L78.397 43.334c-3.988 6.265-11.535 9.368-17.414 9.268l-57.524.422C.792 57.82 0 60.954.034 62.415h76.253l38.906-59.733C112.737 1.266 109.219.122 104.718 0h-.65Z"/>
  <path fill="url(#pm2_svg__b)" d="M76.287 62.415H.033c-.245 3.617.883 7.373 3.005 10.674h51.053c7.944-.873 14.992 2.43 21.144 9.91l12.803 20.698a3.413 3.413 0 1 1-5.776 3.637c-7.894-12.795-12.7-20.033-14.42-21.713-2.58-2.52-5.884-5.686-13.75-5.686H7.325l4.555 7.234h18.23a3.413 3.413 0 0 1 0 6.826H16.178l4.294 6.82c30.72 0 34.987 3.414 45.534 23.772h8.949c-7.643-13.648-12.472-21.698-14.488-24.152-3.023-3.68-7.098-6.44-12.374-6.44h-4.736a3.413 3.413 0 0 1 0-6.826h4.736c7.238 0 15.36 4.65 18.292 10.309l16.198 26.503c.113.196.203.4.274.606H95.06l-3.899-6.685a3.413 3.413 0 1 1 5.897-3.44l5.906 10.125h3.002c2.378.007 4.12-.246 7.52-2.438l-37.2-59.734Z"/>
  <path fill="url(#pm2_svg__c)" d="m115.193 2.682-4.741 7.215 5.874 8.811a3.413 3.413 0 0 1-5.68 3.788l-4.267-6.401-4.712 7.17 16.833 27.55c3.936 6.44 3.917 14.428-.047 20.85a4.053 4.053 0 0 1-.163.24l-2.061 2.782a3.412 3.412 0 0 1-4.775.71 3.414 3.414 0 0 1-.71-4.775l1.97-2.66a13.03 13.03 0 0 0-.038-13.588L97.52 29.573 75.94 62.415l16.97-25.583 8.382 12.948a20.027 20.027 0 0 1-.044 21.83L91.3 86.85 75.94 62.415 95.686 93.83l9.097-12.13a3.415 3.415 0 0 1 5.462 4.098L99.576 100.02l5.188 8.253 25.149-39.707c2.868-4.528 2.901-10.4.084-14.96l-12.162-19.69a3.414 3.414 0 0 1 5.808-3.588l12.162 19.691c4.18 6.767 4.13 15.48-.124 22.2l-26.565 41.942c-.106.17-.23.32-.359.464l4.727 7.524c2.06-1.627 3.525-2.994 4.398-4.1 10.017-12.686 20.442-27.929 31.275-45.727 3.71-6.095 3.807-13.647.137-19.723-13.962-23.115-29.474-47.624-34.101-49.917Z"/>
  <path d="M482.987 28.587c21.964 0 28.875 9.2 29.01 16.678l.003 6.362c-.03.472-.091.963-.192 1.467l-.083.38c-1.36 5.744-7.88 12.994-29.182 13.815l-.129.002-37.115-.301h-.365l-.71.01-.682.017-.656.025-.629.034-.304.02-.59.047-.566.055-.54.063-.517.07-.493.08c-3.932.678-5.566 2.146-6.215 4.204l-.074.255-.066.261-.056.267c-.017.09-.033.18-.048.272l-.04.277-.018.141-.03.286-.024.291-.017.297-.017.454-.007.624.004.48.001 9.387h74.24c3.848 0 4.92 1.673 5.093 4.25l.018.34.008.351.001.18c0 .115-.001.23-.004.342l-.012.333c-.002.055-.005.11-.009.163l-.026.32a7.307 7.307 0 0 1-.11.751l-.065.282c-.463 1.791-1.754 2.839-4.894 2.589h-81.067l-.425.03-.407.021-.39.012c-3.374.059-4.751-1.098-4.751-5.697V74.667c0-10.863 8.427-15.213 15.786-16.902l.656-.144.648-.13c.215-.042.429-.081.64-.118l.63-.106.618-.093.604-.082.59-.072.289-.032.565-.057.546-.048.526-.04.748-.045.694-.03.635-.016.389-.004h39.436c9.08 0 12.807-2.677 14.33-5.032l.154-.25.139-.248.063-.123.117-.24.102-.237a6.53 6.53 0 0 0 .047-.115l.083-.227.037-.11.066-.215.056-.207.046-.197.053-.276.026-.17.027-.231.018-.26.002-.276-.004-.131.024-.204.014-.22.004-.21-.005-.246-.01-.181-.017-.194-.025-.207-.033-.219-.043-.229a6.714 6.714 0 0 0-.053-.239l-.066-.247a6.803 6.803 0 0 0-.037-.127l-.085-.26c-.98-2.804-4.399-6.748-15.84-7.024-.072-.001-.146.005-.218.005H448a5.547 5.547 0 0 1-5.547-5.547c0-3.063 2.484-4.267 5.547-4.267h34.987Zm-92.901 20.08-38.771 43.305c-5.178 5.043-11.149 5.043-16.272 0l-40.148-44.023V89.9c-.059 3.77-3.181 6.802-6.932 6.72a6.828 6.828 0 0 1-6.721-6.93l.851-55.258c.034-2.246 1.062-4.414 2.906-5.694a6.829 6.829 0 0 1 8.862.877l48.31 51.105c.273.29.738.28 1.001-.02l46.444-49.786c1.878-2.117 6.588-3.12 9.235-2.12 2.648.998 4.67 3.561 4.683 6.392v54.503c0 5.137-3.206 5.225-7.092 5.225-3.77 0-6.56-.062-6.56-5.088 0-3.351.068-17.07.204-41.158Zm-151.58-20.506c12.924.004 28.156 5.285 28.156 17.893v7.42c0 11.883-14.233 18.174-26.011 17.794l-50.151-.014v19.43a4.037 4.037 0 0 1-3.852 4.033l-.184.004h-5.787a4.037 4.037 0 0 1-4.033-3.853l-.004-.184V32.55a4.391 4.391 0 0 1 4.205-4.386l.185-.004h57.477Zm1.788 10.24h-50.427v22.378l50.346-.192c7.567 0 13.432 0 13.65-7.112v-7.42c0-7.654-8.517-7.659-13.569-7.654Z"/>
</svg>
